content/en/docs/ops/deployment/deployment-models/shared-control.svg

<svg xmlns="http://www.w3.org/2000/svg" viewBox="0 0 1003.27 530.67"><defs><style>.a402c49a-2909-418d-9b77-3dc4b275a969,.ad932c45-f65e-4438-a195-b914043ac742,.b4e8ecd6-4b30-4579-9aa1-947b7eea3e99,.e9f8207e-c278-4239-a726-09e3faa1ded5,.eadd2ae5-a5fb-4747-a0b2-4aa4a405db64{fill:none}.a402c49a-2909-418d-9b77-3dc4b275a969,.ad932c45-f65e-4438-a195-b914043ac742,.e9f8207e-c278-4239-a726-09e3faa1ded5{stroke-linejoin:round}.aab9bb78-1a4f-4378-971d-36e12576215b,.fafb7a07-deea-4410-9e13-a1a4f12d8908{font-family:Roboto-Regular,Roboto}.fafb7a07-deea-4410-9e13-a1a4f12d8908{font-size:13.96px}.b4e8ecd6-4b30-4579-9aa1-947b7eea3e99,.e9f8207e-c278-4239-a726-09e3faa1ded5{stroke-width:2px}.aa84f06f-f2c5-441d-bda1-034dc09854c3{fill:#e6e6e6}.a26efb80-2e32-4c5b-a66d-58db8577ed72{fill:#fff}.ad932c45-f65e-4438-a195-b914043ac742{stroke:#e905ee;stroke-width:3px}.aab9bb78-1a4f-4378-971d-36e12576215b{font-size:16.29px}.bbc80987-3a76-40d3-a8b5-6e1165f0f6e9{letter-spacing:.01em}.bf913983-870c-4c8a-acc2-e3b3558e14e9{fill:#757575}.b4e8ecd6-4b30-4579-9aa1-947b7eea3e99,.e9f8207e-c278-4239-a726-09e3faa1ded5{stroke:#fff}.a402c49a-2909-418d-9b77-3dc4b275a969,.b4e8ecd6-4b30-4579-9aa1-947b7eea3e99{stroke-linecap:round}.b4e8ecd6-4b30-4579-9aa1-947b7eea3e99,.eadd2ae5-a5fb-4747-a0b2-4aa4a405db64{stroke-miterlimit:10}.a402c49a-2909-418d-9b77-3dc4b275a969{stroke:#486baf;stroke-dasharray:6 12;stroke-width:4px}.eadd2ae5-a5fb-4747-a0b2-4aa4a405db64{stroke-width:4px}.ab757aae-01df-4d19-a622-54b717d65f09{fill:#486baf}.eadd2ae5-a5fb-4747-a0b2-4aa4a405db64{stroke:#090}.fa3de029-ba30-4581-bdd5-a80f026435c9{fill:#090}</style></defs><g id="e5476378-15b1-4713-97b2-194a35e229ae" data-name="shared-control"><rect x=".5" y="13.7" width="1002.27" height="516.47" rx="10" stroke-linejoin="round" stroke="#466bb0" stroke-dasharray="10 10" fill="none"/><text transform="translate(.48 10.27)" font-family="Roboto-Regular,Roboto" font-size="12">Istio Mesh</text><text class="fafb7a07-deea-4410-9e13-a1a4f12d8908" transform="translate(10.83 81.07)">Cluster: <tspan x="50.89" y="0" letter-spacing="-.02em">W</tspan><tspan x="63.06" y="0" letter-spacing="0">est</tspan></text><path d="M467.42 469.12l-444.87-1.69a11.66 11.66 0 01-11.63-11.63V96.2a11.67 11.67 0 0111.63-11.63l444.87 1.68a11.68 11.68 0 0111.64 11.64v359.59a11.68 11.68 0 01-11.64 11.64zm511.26 0l-444.87-1.69a11.67 11.67 0 01-11.64-11.63V96.2a11.67 11.67 0 0111.64-11.63l444.87 1.68a11.67 11.67 0 0111.63 11.64v359.59a11.67 11.67 0 01-11.63 11.64z" stroke="#fbb040" stroke-width="2" stroke-linejoin="round" fill="none"/><text class="fafb7a07-deea-4410-9e13-a1a4f12d8908" transform="translate(522.17 82.75)">Cluster: East</text><rect class="aa84f06f-f2c5-441d-bda1-034dc09854c3" x="728.95" y="133.06" width="229.94" height="83.76" rx="3"/><rect class="a26efb80-2e32-4c5b-a66d-58db8577ed72" x="739.01" y="143.53" width="62.82" height="62.82" rx="3"/><path class="ad932c45-f65e-4438-a195-b914043ac742" d="M785.84 183.84v-17.8l-15.42-8.9-15.43 8.9v17.8l15.43 8.9 15.42-8.9z"/><rect class="a26efb80-2e32-4c5b-a66d-58db8577ed72" x="812.3" y="143.53" width="136.12" height="62.82" rx="3"/><text class="aab9bb78-1a4f-4378-971d-36e12576215b" transform="translate(873.56 180.57)">Se<tspan class="bbc80987-3a76-40d3-a8b5-6e1165f0f6e9" x="18.29" y="0">r</tspan><tspan x="23.95" y="0">vice B</tspan></text><circle class="bf913983-870c-4c8a-acc2-e3b3558e14e9" cx="843.71" cy="174.94" r="20.94"/><path class="e9f8207e-c278-4239-a726-09e3faa1ded5" d="M836.27 167.36h14.88v14.88h-14.88z"/><path class="b4e8ecd6-4b30-4579-9aa1-947b7eea3e99" d="M839.03 167.36v-3.58m4.68 3.58v-3.58m4.69 3.58v-3.58m-9.37 22.32v-3.58m4.68 3.58v-3.58m4.69 3.58v-3.58m-12.27-2.9h-3.58m3.58-4.68h-3.58m3.58-4.69h-3.58m22.32 9.37h-3.58m3.58-4.68h-3.58m3.58-4.69h-3.58"/><rect class="a26efb80-2e32-4c5b-a66d-58db8577ed72" x="840.41" y="171.49" width="6.61" height="6.61" rx="2"/><rect class="aa84f06f-f2c5-441d-bda1-034dc09854c3" x="40.01" y="131.37" width="229.94" height="83.76" rx="3"/><rect class="a26efb80-2e32-4c5b-a66d-58db8577ed72" x="50.07" y="141.84" width="136.12" height="62.82" rx="3"/><text class="aab9bb78-1a4f-4378-971d-36e12576215b" transform="translate(111.09 178.88)">Se<tspan class="bbc80987-3a76-40d3-a8b5-6e1165f0f6e9" x="18.29" y="0">r</tspan><tspan x="23.95" y="0">vice A</tspan></text><circle class="bf913983-870c-4c8a-acc2-e3b3558e14e9" cx="81.48" cy="173.25" r="20.94"/><path class="e9f8207e-c278-4239-a726-09e3faa1ded5" d="M74.05 165.68h14.88v14.88H74.05z"/><path class="b4e8ecd6-4b30-4579-9aa1-947b7eea3e99" d="M76.8 165.68v-3.59m4.68 3.59v-3.59m4.69 3.59v-3.59m-9.37 22.32v-3.58m4.68 3.58v-3.58m4.69 3.58v-3.58m-12.26-2.89h-3.58m3.58-4.69h-3.58m3.58-4.68h-3.58m22.31 9.37h-3.58m3.58-4.69h-3.58m3.58-4.68h-3.58"/><rect class="a26efb80-2e32-4c5b-a66d-58db8577ed72" x="78.18" y="169.81" width="6.61" height="6.61" rx="2"/><rect class="a26efb80-2e32-4c5b-a66d-58db8577ed72" x="196.66" y="141.84" width="62.82" height="62.82" rx="3"/><path class="ad932c45-f65e-4438-a195-b914043ac742" d="M243.5 182.15v-17.8l-15.43-8.9-15.42 8.9v17.8l15.42 8.9 15.43-8.9z"/><rect class="aa84f06f-f2c5-441d-bda1-034dc09854c3" x="728.95" y="326.18" width="229.94" height="83.76" rx="3"/><rect class="a26efb80-2e32-4c5b-a66d-58db8577ed72" x="739.01" y="336.65" width="62.82" height="62.82" rx="3"/><path class="ad932c45-f65e-4438-a195-b914043ac742" d="M785.84 376.96v-17.8l-15.42-8.9-15.43 8.9v17.8l15.43 8.9 15.42-8.9z"/><rect class="a26efb80-2e32-4c5b-a66d-58db8577ed72" x="812.3" y="336.65" width="136.12" height="62.82" rx="3"/><text class="aab9bb78-1a4f-4378-971d-36e12576215b" transform="translate(873.32 373.69)">Se<tspan class="bbc80987-3a76-40d3-a8b5-6e1165f0f6e9" x="18.29" y="0">r</tspan><tspan x="23.95" y="0">vice A</tspan></text><circle class="bf913983-870c-4c8a-acc2-e3b3558e14e9" cx="843.71" cy="368.06" r="20.94"/><path class="e9f8207e-c278-4239-a726-09e3faa1ded5" d="M836.27 360.49h14.88v14.88h-14.88z"/><path class="b4e8ecd6-4b30-4579-9aa1-947b7eea3e99" d="M839.03 360.49v-3.59m4.68 3.59v-3.59m4.69 3.59v-3.59m-9.37 22.32v-3.58m4.68 3.58v-3.58m4.69 3.58v-3.58m-12.27-2.89h-3.58m3.58-4.69h-3.58m3.58-4.68h-3.58m22.32 9.37h-3.58m3.58-4.69h-3.58m3.58-4.68h-3.58"/><rect class="a26efb80-2e32-4c5b-a66d-58db8577ed72" x="840.41" y="364.62" width="6.61" height="6.61" rx="2"/><rect class="aa84f06f-f2c5-441d-bda1-034dc09854c3" x="40.01" y="324.5" width="229.94" height="83.76" rx="3"/><rect class="a26efb80-2e32-4c5b-a66d-58db8577ed72" x="50.07" y="334.97" width="136.12" height="62.82" rx="3"/><text class="aab9bb78-1a4f-4378-971d-36e12576215b" transform="translate(111.33 372.01)">Se<tspan class="bbc80987-3a76-40d3-a8b5-6e1165f0f6e9" x="18.29" y="0">r</tspan><tspan x="23.95" y="0">vice B</tspan></text><circle class="bf913983-870c-4c8a-acc2-e3b3558e14e9" cx="81.48" cy="366.38" r="20.94"/><path class="e9f8207e-c278-4239-a726-09e3faa1ded5" d="M74.05 358.8h14.88v14.88H74.05z"/><path class="b4e8ecd6-4b30-4579-9aa1-947b7eea3e99" d="M76.8 358.8v-3.58m4.68 3.58v-3.58m4.69 3.58v-3.58m-9.37 22.32v-3.58m4.68 3.58v-3.58m4.69 3.58v-3.58m-12.26-2.9h-3.58m3.58-4.68h-3.58m3.58-4.69h-3.58m22.31 9.37h-3.58m3.58-4.68h-3.58m3.58-4.69h-3.58"/><rect class="a26efb80-2e32-4c5b-a66d-58db8577ed72" x="78.18" y="362.93" width="6.61" height="6.61" rx="2"/><rect class="a26efb80-2e32-4c5b-a66d-58db8577ed72" x="196.66" y="334.97" width="62.82" height="62.82" rx="3"/><path class="ad932c45-f65e-4438-a195-b914043ac742" d="M243.5 375.28v-17.8l-15.43-8.9-15.42 8.9v17.8l15.42 8.9 15.43-8.9z"/><path class="a402c49a-2909-418d-9b77-3dc4b275a969" d="M318.49 313.17v54.89h-51.83"/><path class="ab757aae-01df-4d19-a622-54b717d65f09" d="M268.12 363.08l-8.63 4.98 8.63 4.99v-9.97z"/><path class="a402c49a-2909-418d-9b77-3dc4b275a969" d="M397.96 313.17v54.89h333.87"/><path class="ab757aae-01df-4d19-a622-54b717d65f09" d="M730.37 373.05l8.64-4.99-8.64-4.98v9.97z"/><path class="a402c49a-2909-418d-9b77-3dc4b275a969" d="M318.49 225.41v-54.89h-51.83"/><path class="ab757aae-01df-4d19-a622-54b717d65f09" d="M268.12 165.53l-8.63 4.99 8.63 4.98v-9.97z"/><path class="a402c49a-2909-418d-9b77-3dc4b275a969" d="M397.96 225.41v-54.89h333.87"/><path class="ab757aae-01df-4d19-a622-54b717d65f09" d="M730.37 175.5l8.64-4.98-8.64-4.99v9.97z"/><path class="eadd2ae5-a5fb-4747-a0b2-4aa4a405db64" d="M266.66 148.84h465.17"/><path class="fa3de029-ba30-4581-bdd5-a80f026435c9" d="M268.12 153.82l-8.63-4.98 8.63-4.99v9.97zm462.25 0l8.64-4.98-8.64-4.99v9.97z"/><path class="eadd2ae5-a5fb-4747-a0b2-4aa4a405db64" d="M266.66 389h465.17"/><path class="fa3de029-ba30-4581-bdd5-a80f026435c9" d="M268.12 393.99l-8.63-4.99 8.63-4.98v9.97zm462.25 0l8.64-4.99-8.64-4.98v9.97z"/><rect x="287.37" y="225.41" width="143.39" height="87.76" rx="3" fill="#e5e5e4"/><rect class="a26efb80-2e32-4c5b-a66d-58db8577ed72" x="297.61" y="275.94" width="122.91" height="30.73" rx="3"/><text class="aab9bb78-1a4f-4378-971d-36e12576215b" transform="translate(310.36 296.12)">Cont<tspan x="34.2" y="0" letter-spacing="-.02em">r</tspan><tspan x="39.44" y="0">ol Plane</tspan></text><path id="b28bc2a1-aa50-4d6d-9c98-71d5ea79fae6" data-name="background" class="ab757aae-01df-4d19-a622-54b717d65f09" d="M342.52 225.41h33.08v33.08h-33.08z"/><path id="ea08fad2-0c59-41a9-ad15-5a8ef9c99cbc" data-name="hull" class="a26efb80-2e32-4c5b-a66d-58db8577ed72" d="M349.06 253.21h20.01l-12.51 3.75-7.5-3.75z"/><path id="a2043dfe-ba7b-4961-8da7-9a3aa00f3435" data-name="mainsail" class="a26efb80-2e32-4c5b-a66d-58db8577ed72" d="M349.06 251.96l7.5-1.25v-13.76l-7.5 15.01z"/><path id="bf1ce92e-e82a-47ae-b232-0be3ee1dab29" data-name="headsail" class="a26efb80-2e32-4c5b-a66d-58db8577ed72" d="M357.81 250.71l11.26 1.25-11.26-25.02v23.77z"/></g></svg>

<svg xmlns="http://www.w3.org/2000/svg" viewBox="0 0 1003.27 530.67"><defs><style>.a00c98b7-e1dc-478d-9abf-f8ecd58b7b8d,.a402c49a-2909-418d-9b77-3dc4b275a969,.ad932c45-f65e-4438-a195-b914043ac742,.b4e8ecd6-4b30-4579-9aa1-947b7eea3e99,.e9f8207e-c278-4239-a726-09e3faa1ded5,.eadd2ae5-a5fb-4747-a0b2-4aa4a405db64{fill:none}.a00c98b7-e1dc-478d-9abf-f8ecd58b7b8d,.a402c49a-2909-418d-9b77-3dc4b275a969,.ad932c45-f65e-4438-a195-b914043ac742,.e9f8207e-c278-4239-a726-09e3faa1ded5{stroke-linejoin:round}.aab9bb78-1a4f-4378-971d-36e12576215b,.fafb7a07-deea-4410-9e13-a1a4f12d8908{font-family:Roboto-Regular,Roboto}.fafb7a07-deea-4410-9e13-a1a4f12d8908{font-size:13.96px}.a00c98b7-e1dc-478d-9abf-f8ecd58b7b8d{stroke:#fbb040;stroke-width:2px}.b4e8ecd6-4b30-4579-9aa1-947b7eea3e99,.e9f8207e-c278-4239-a726-09e3faa1ded5{stroke-width:2px}.aa84f06f-f2c5-441d-bda1-034dc09854c3{fill:#e6e6e6}.a26efb80-2e32-4c5b-a66d-58db8577ed72{fill:#fff}.ad932c45-f65e-4438-a195-b914043ac742{stroke:#e905ee;stroke-width:3px}.aab9bb78-1a4f-4378-971d-36e12576215b{font-size:16.29px}.bbc80987-3a76-40d3-a8b5-6e1165f0f6e9{letter-spacing:.01em}.bf913983-870c-4c8a-acc2-e3b3558e14e9{fill:#757575}.b4e8ecd6-4b30-4579-9aa1-947b7eea3e99,.e9f8207e-c278-4239-a726-09e3faa1ded5{stroke:#fff}.a402c49a-2909-418d-9b77-3dc4b275a969,.b4e8ecd6-4b30-4579-9aa1-947b7eea3e99{stroke-linecap:round}.b4e8ecd6-4b30-4579-9aa1-947b7eea3e99,.eadd2ae5-a5fb-4747-a0b2-4aa4a405db64{stroke-miterlimit:10}.a402c49a-2909-418d-9b77-3dc4b275a969{stroke:#486baf;stroke-dasharray:6 12;stroke-width:4px}.eadd2ae5-a5fb-4747-a0b2-4aa4a405db64{stroke-width:4px}.ab757aae-01df-4d19-a622-54b717d65f09{fill:#486baf}.eadd2ae5-a5fb-4747-a0b2-4aa4a405db64{stroke:#090}.fa3de029-ba30-4581-bdd5-a80f026435c9{fill:#090}</style></defs><g id="e5476378-15b1-4713-97b2-194a35e229ae" data-name="shared-control"><rect x=".5" y="13.7" width="1002.27" height="516.47" rx="10" stroke-linejoin="round" stroke="#466bb0" stroke-dasharray="10 10" fill="none"/><text transform="translate(.48 10.27)" font-family="Roboto-Regular,Roboto" font-size="12">Istio Mesh</text><text class="fafb7a07-deea-4410-9e13-a1a4f12d8908" transform="translate(10.83 81.07)">Cluster: <tspan x="50.89" y="0" letter-spacing="-.02em">W</tspan><tspan x="63.06" y="0" letter-spacing="0">est</tspan></text><path class="a00c98b7-e1dc-478d-9abf-f8ecd58b7b8d" d="M467.42 469.12l-444.87-1.69a11.66 11.66 0 01-11.63-11.63V96.2a11.67 11.67 0 0111.63-11.63l444.87 1.68a11.68 11.68 0 0111.64 11.64v359.59a11.68 11.68 0 01-11.64 11.64zM978.68 469.12l-444.87-1.69a11.67 11.67 0 01-11.64-11.63V96.2a11.67 11.67 0 0111.64-11.63l444.87 1.68a11.67 11.67 0 0111.63 11.64v359.59a11.67 11.67 0 01-11.63 11.64z"/><text class="fafb7a07-deea-4410-9e13-a1a4f12d8908" transform="translate(522.17 82.75)">Cluster: East</text><rect class="aa84f06f-f2c5-441d-bda1-034dc09854c3" x="728.95" y="133.06" width="229.94" height="83.76" rx="3"/><rect class="a26efb80-2e32-4c5b-a66d-58db8577ed72" x="739.01" y="143.53" width="62.82" height="62.82" rx="3"/><path class="ad932c45-f65e-4438-a195-b914043ac742" d="M785.84 183.84v-17.8l-15.42-8.9-15.43 8.9v17.8l15.43 8.9 15.42-8.9z"/><rect class="a26efb80-2e32-4c5b-a66d-58db8577ed72" x="812.3" y="143.53" width="136.12" height="62.82" rx="3"/><text class="aab9bb78-1a4f-4378-971d-36e12576215b" transform="translate(873.56 180.57)">Se<tspan class="bbc80987-3a76-40d3-a8b5-6e1165f0f6e9" x="18.29" y="0">r</tspan><tspan x="23.95" y="0">vice B</tspan></text><circle class="bf913983-870c-4c8a-acc2-e3b3558e14e9" cx="843.71" cy="174.94" r="20.94"/><path class="e9f8207e-c278-4239-a726-09e3faa1ded5" d="M836.27 167.36h14.88v14.88h-14.88z"/><path class="b4e8ecd6-4b30-4579-9aa1-947b7eea3e99" d="M839.03 167.36v-3.58M843.71 167.36v-3.58M848.4 167.36v-3.58M839.03 186.1v-3.58M843.71 186.1v-3.58M848.4 186.1v-3.58M836.13 179.62h-3.58M836.13 174.94h-3.58M836.13 170.25h-3.58M854.87 179.62h-3.58M854.87 174.94h-3.58M854.87 170.25h-3.58"/><rect class="a26efb80-2e32-4c5b-a66d-58db8577ed72" x="840.41" y="171.49" width="6.61" height="6.61" rx="2"/><rect class="aa84f06f-f2c5-441d-bda1-034dc09854c3" x="40.01" y="131.37" width="229.94" height="83.76" rx="3"/><rect class="a26efb80-2e32-4c5b-a66d-58db8577ed72" x="50.07" y="141.84" width="136.12" height="62.82" rx="3"/><text class="aab9bb78-1a4f-4378-971d-36e12576215b" transform="translate(111.09 178.88)">Se<tspan class="bbc80987-3a76-40d3-a8b5-6e1165f0f6e9" x="18.29" y="0">r</tspan><tspan x="23.95" y="0">vice A</tspan></text><circle class="bf913983-870c-4c8a-acc2-e3b3558e14e9" cx="81.48" cy="173.25" r="20.94"/><path class="e9f8207e-c278-4239-a726-09e3faa1ded5" d="M74.05 165.68h14.88v14.88H74.05z"/><path class="b4e8ecd6-4b30-4579-9aa1-947b7eea3e99" d="M76.8 165.68v-3.59M81.48 165.68v-3.59M86.17 165.68v-3.59M76.8 184.41v-3.58M81.48 184.41v-3.58M86.17 184.41v-3.58M73.91 177.94h-3.58M73.91 173.25h-3.58M73.91 168.57h-3.58M92.64 177.94h-3.58M92.64 173.25h-3.58M92.64 168.57h-3.58"/><rect class="a26efb80-2e32-4c5b-a66d-58db8577ed72" x="78.18" y="169.81" width="6.61" height="6.61" rx="2"/><rect class="a26efb80-2e32-4c5b-a66d-58db8577ed72" x="196.66" y="141.84" width="62.82" height="62.82" rx="3"/><path class="ad932c45-f65e-4438-a195-b914043ac742" d="M243.5 182.15v-17.8l-15.43-8.9-15.42 8.9v17.8l15.42 8.9 15.43-8.9z"/><rect class="aa84f06f-f2c5-441d-bda1-034dc09854c3" x="728.95" y="326.18" width="229.94" height="83.76" rx="3"/><rect class="a26efb80-2e32-4c5b-a66d-58db8577ed72" x="739.01" y="336.65" width="62.82" height="62.82" rx="3"/><path class="ad932c45-f65e-4438-a195-b914043ac742" d="M785.84 376.96v-17.8l-15.42-8.9-15.43 8.9v17.8l15.43 8.9 15.42-8.9z"/><rect class="a26efb80-2e32-4c5b-a66d-58db8577ed72" x="812.3" y="336.65" width="136.12" height="62.82" rx="3"/><text class="aab9bb78-1a4f-4378-971d-36e12576215b" transform="translate(873.32 373.69)">Se<tspan class="bbc80987-3a76-40d3-a8b5-6e1165f0f6e9" x="18.29" y="0">r</tspan><tspan x="23.95" y="0">vice A</tspan></text><circle class="bf913983-870c-4c8a-acc2-e3b3558e14e9" cx="843.71" cy="368.06" r="20.94"/><path class="e9f8207e-c278-4239-a726-09e3faa1ded5" d="M836.27 360.49h14.88v14.88h-14.88z"/><path class="b4e8ecd6-4b30-4579-9aa1-947b7eea3e99" d="M839.03 360.49v-3.59M843.71 360.49v-3.59M848.4 360.49v-3.59M839.03 379.22v-3.58M843.71 379.22v-3.58M848.4 379.22v-3.58M836.13 372.75h-3.58M836.13 368.06h-3.58M836.13 363.38h-3.58M854.87 372.75h-3.58M854.87 368.06h-3.58M854.87 363.38h-3.58"/><rect class="a26efb80-2e32-4c5b-a66d-58db8577ed72" x="840.41" y="364.62" width="6.61" height="6.61" rx="2"/><rect class="aa84f06f-f2c5-441d-bda1-034dc09854c3" x="40.01" y="324.5" width="229.94" height="83.76" rx="3"/><rect class="a26efb80-2e32-4c5b-a66d-58db8577ed72" x="50.07" y="334.97" width="136.12" height="62.82" rx="3"/><text class="aab9bb78-1a4f-4378-971d-36e12576215b" transform="translate(111.33 372.01)">Se<tspan class="bbc80987-3a76-40d3-a8b5-6e1165f0f6e9" x="18.29" y="0">r</tspan><tspan x="23.95" y="0">vice B</tspan></text><circle class="bf913983-870c-4c8a-acc2-e3b3558e14e9" cx="81.48" cy="366.38" r="20.94"/><path class="e9f8207e-c278-4239-a726-09e3faa1ded5" d="M74.05 358.8h14.88v14.88H74.05z"/><path class="b4e8ecd6-4b30-4579-9aa1-947b7eea3e99" d="M76.8 358.8v-3.58M81.48 358.8v-3.58M86.17 358.8v-3.58M76.8 377.54v-3.58M81.48 377.54v-3.58M86.17 377.54v-3.58M73.91 371.06h-3.58M73.91 366.38h-3.58M73.91 361.69h-3.58M92.64 371.06h-3.58M92.64 366.38h-3.58M92.64 361.69h-3.58"/><rect class="a26efb80-2e32-4c5b-a66d-58db8577ed72" x="78.18" y="362.93" width="6.61" height="6.61" rx="2"/><rect class="a26efb80-2e32-4c5b-a66d-58db8577ed72" x="196.66" y="334.97" width="62.82" height="62.82" rx="3"/><path class="ad932c45-f65e-4438-a195-b914043ac742" d="M243.5 375.28v-17.8l-15.43-8.9-15.42 8.9v17.8l15.42 8.9 15.43-8.9z"/><path class="a402c49a-2909-418d-9b77-3dc4b275a969" d="M318.49 313.17v54.89h-51.83"/><path class="ab757aae-01df-4d19-a622-54b717d65f09" d="M268.12 363.08l-8.63 4.98 8.63 4.99v-9.97z"/><path class="a402c49a-2909-418d-9b77-3dc4b275a969" d="M397.96 313.17v54.89h333.87"/><path class="ab757aae-01df-4d19-a622-54b717d65f09" d="M730.37 373.05l8.64-4.99-8.64-4.98v9.97z"/><path class="a402c49a-2909-418d-9b77-3dc4b275a969" d="M318.49 225.41v-54.89h-51.83"/><path class="ab757aae-01df-4d19-a622-54b717d65f09" d="M268.12 165.53l-8.63 4.99 8.63 4.98v-9.97z"/><path class="a402c49a-2909-418d-9b77-3dc4b275a969" d="M397.96 225.41v-54.89h333.87"/><path class="ab757aae-01df-4d19-a622-54b717d65f09" d="M730.37 175.5l8.64-4.98-8.64-4.99v9.97z"/><path class="eadd2ae5-a5fb-4747-a0b2-4aa4a405db64" d="M266.66 148.84h465.17"/><path class="fa3de029-ba30-4581-bdd5-a80f026435c9" d="M268.12 153.82l-8.63-4.98 8.63-4.99v9.97zM730.37 153.82l8.64-4.98-8.64-4.99v9.97z"/><path class="eadd2ae5-a5fb-4747-a0b2-4aa4a405db64" d="M266.66 389h465.17"/><path class="fa3de029-ba30-4581-bdd5-a80f026435c9" d="M268.12 393.99l-8.63-4.99 8.63-4.98v9.97zM730.37 393.99l8.64-4.99-8.64-4.98v9.97z"/><rect x="287.37" y="225.41" width="143.39" height="87.76" rx="3" fill="#e5e5e4"/><rect class="a26efb80-2e32-4c5b-a66d-58db8577ed72" x="297.61" y="275.94" width="122.91" height="30.73" rx="3"/><text class="aab9bb78-1a4f-4378-971d-36e12576215b" transform="translate(310.36 296.12)">Cont<tspan x="34.2" y="0" letter-spacing="-.02em">r</tspan><tspan x="39.44" y="0">ol Plane</tspan></text><path id="b28bc2a1-aa50-4d6d-9c98-71d5ea79fae6" data-name="background" class="ab757aae-01df-4d19-a622-54b717d65f09" d="M342.52 225.41h33.08v33.08h-33.08z"/><path id="ea08fad2-0c59-41a9-ad15-5a8ef9c99cbc" data-name="hull" class="a26efb80-2e32-4c5b-a66d-58db8577ed72" d="M349.06 253.21h20.01l-12.51 3.75-7.5-3.75z"/><path id="a2043dfe-ba7b-4961-8da7-9a3aa00f3435" data-name="mainsail" class="a26efb80-2e32-4c5b-a66d-58db8577ed72" d="M349.06 251.96l7.5-1.25v-13.76l-7.5 15.01z"/><path id="bf1ce92e-e82a-47ae-b232-0be3ee1dab29" data-name="headsail" class="a26efb80-2e32-4c5b-a66d-58db8577ed72" d="M357.81 250.71l11.26 1.25-11.26-25.02v23.77z"/></g></svg>
